img/micro.svg

<svg width="14" height="20" viewBox="0 0 14 20" fill="none" xmlns="http://www.w3.org/2000/svg">
<path d="M1 8V9C1 12.3137 3.68629 15 7 15M13 8V9C13 12.3137 10.3137 15 7 15M7 15V19M7 19H11M7 19H3M7 12C5.34315 12 4 10.6569 4 9V4C4 2.34315 5.34315 1 7 1C8.65685 1 10 2.34315 10 4V9C10 10.6569 8.65685 12 7 12Z" stroke="#686B6E" stroke-width="1.5" stroke-linecap="round" stroke-linejoin="round"/>
</svg>

<svg width="14" height="20" fill="none" xmlns="http://www.w3.org/2000/svg"><path d="M1 8v1a6 6 0 0 0 6 6m6-7v1a6 6 0 0 1-6 6m0 0v4m0 0h4m-4 0H3m4-7a3 3 0 0 1-3-3V4a3 3 0 0 1 6 0v5a3 3 0 0 1-3 3Z" stroke="#686B6E" stroke-width="1.5" stroke-linecap="round" stroke-linejoin="round"/></svg>
